dist/files/common/section-icon-support.svg

<svg width="96" height="96" viewBox="0 0 96 96" fill="none" xmlns="http://www.w3.org/2000/svg">
<g clip-path="url(#clip0_40_113)">
<path fill-rule="evenodd" clip-rule="evenodd" d="M45.0921 33.3881C35.9481 31.1761 29.9121 35.5761 33.3321 45.4041C35.5161 51.6041 49.5801 91.4001 57.2761 95.2641C59.009 96.012 60.9332 96.1963 62.7766 95.7907C64.6199 95.3851 66.2891 94.4103 67.5481 93.0041C69.8883 88.3763 71.6188 83.4647 72.6961 78.3921C74.4841 70.6961 71.8721 73.3681 81.7641 69.7961C87.6041 67.6921 94.2961 65.5041 95.4921 59.4161C95.8097 57.9889 95.6322 56.4962 94.9888 55.1833C94.3455 53.8704 93.2745 52.8155 91.9521 52.1921C77.1239 44.1084 61.3957 37.7943 45.0921 33.3881ZM90.3041 55.0641C94.2361 57.4321 91.2761 62.1041 86.4641 63.8281C66.2241 71.0601 71.1641 65.7641 68.2001 77.2921C67.1346 81.6171 65.6391 85.8247 63.7361 89.8521C63.1548 90.4402 62.4009 90.8272 61.5842 90.9568C60.7675 91.0863 59.9308 90.9515 59.1961 90.5721C54.4121 87.2761 40.6481 50.8801 38.0841 43.7161C36.3721 38.9801 37.1961 36.5721 43.9721 38.1121C60.0235 41.9534 75.5715 47.656 90.3001 55.1041V55.0721L90.3041 55.0641ZM1.47208 26.2321C7.20747 29.8508 13.6046 32.2941 20.2921 33.4201C20.7095 33.552 21.162 33.5145 21.552 33.3158C21.9421 33.117 22.2383 32.7729 22.3769 32.3577C22.5155 31.9424 22.4853 31.4894 22.2928 31.0962C22.1003 30.703 21.761 30.4013 21.3481 30.2561C17.8707 28.2534 14.2454 26.5667 10.4721 25.1961C-1.69592 20.7161 -0.207919 25.6561 1.47208 26.2321ZM27.8081 1.77207C26.3161 28.5441 33.1681 25.1601 33.1681 22.4041C33.4683 15.3537 32.7188 8.29796 30.9441 1.46807C30.9298 1.25778 30.8734 1.0525 30.7784 0.864372C30.6834 0.676245 30.5515 0.509092 30.3908 0.372807C30.23 0.236521 30.0435 0.133871 29.8423 0.0709311C29.6412 0.00799114 29.4294 -0.01396 29.2197 0.0063767C29.0099 0.0267134 28.8063 0.0889246 28.621 0.189329C28.4356 0.289734 28.2723 0.426291 28.1407 0.590922C28.0091 0.755552 27.9119 0.944909 27.8547 1.14779C27.7976 1.35067 27.7817 1.56295 27.8081 1.77207ZM53.9921 1.52007C50.2562 7.87038 47.8196 14.8999 46.8241 22.2001C46.7362 22.4603 46.714 22.7383 46.7597 23.0091C46.8053 23.28 46.9173 23.5354 47.0856 23.7524C47.254 23.9695 47.4734 24.1415 47.7244 24.2531C47.9754 24.3647 48.2501 24.4125 48.5241 24.3921C48.8533 24.3679 49.1681 24.2473 49.4292 24.0452C49.6903 23.8432 49.8861 23.5687 49.9921 23.2561C53.4644 16.8228 55.823 9.84834 56.9681 2.62807C57.0553 2.42998 57.1012 2.21613 57.1028 1.99968C57.1044 1.78323 57.0617 1.56873 56.9774 1.36937C56.8931 1.17 56.7689 0.989981 56.6125 0.840358C56.4561 0.690736 56.2707 0.574673 56.0678 0.499298C55.8649 0.423923 55.6487 0.390827 55.4325 0.402044C55.2164 0.413261 55.0048 0.468554 54.8108 0.564526C54.6167 0.660497 54.4444 0.795122 54.3043 0.960131C54.1642 1.12514 54.0593 1.31705 53.9961 1.52407M58.7321 32.6801C65.6814 30.448 72.1543 26.9416 77.8201 22.3401C78.2169 22.1491 78.5215 21.8084 78.667 21.3928C78.8126 20.9772 78.787 20.5208 78.5961 20.1241C78.4051 19.7273 78.0644 19.4226 77.6488 19.2771C77.2332 19.1316 76.7768 19.1571 76.3801 19.3481C69.5585 21.8055 63.1739 25.3381 57.4681 29.8121C57.1257 30.0033 56.8669 30.3153 56.7423 30.6871C56.6177 31.059 56.6362 31.4639 56.7941 31.8228C56.9521 32.1818 57.2382 32.4689 57.5966 32.6282C57.9549 32.7874 58.3598 32.8034 58.7321 32.6801ZM2.79208 58.2961C9.95494 55.3194 16.7407 51.5063 23.0081 46.9361C25.2561 45.8801 25.7001 37.0161 1.21608 55.5601C0.870969 55.7778 0.62347 56.1206 0.525407 56.5167C0.427345 56.9128 0.486325 57.3314 0.689998 57.685C0.89367 58.0386 1.22624 58.2997 1.61807 58.4136C2.0099 58.5275 2.4306 58.4854 2.79208 58.2961ZM24.0001 81.4401C27.6345 74.6773 30.2865 67.4312 31.8761 59.9201C33.2761 56.5321 26.6681 52.8121 21.0321 80.3761C20.9622 80.571 20.9314 80.7777 20.9415 80.9845C20.9515 81.1912 21.0022 81.394 21.0906 81.5812C21.179 81.7684 21.3034 81.9364 21.4567 82.0755C21.61 82.2146 21.7892 82.3222 21.9841 82.3921C22.179 82.4619 22.3857 82.4927 22.5925 82.4827C22.7993 82.4727 23.002 82.422 23.1892 82.3336C23.3764 82.2452 23.5444 82.1208 23.6835 81.9675C23.8227 81.8142 23.9302 81.635 24.0001 81.4401Z" fill="#b72b00"/>
</g>
<defs>
<clipPath id="clip0_40_113">
<rect width="96" height="96" fill="white"/>
</clipPath>
</defs>
</svg>

<svg xmlns="http://www.w3.org/2000/svg" fill="none" viewBox="0 0 96 96"><g clip-path="url(#a)"><path fill="#b72b00" fill-rule="evenodd" d="M45.092 33.388c-9.144-2.212-15.18 2.188-11.76 12.016 2.184 6.2 16.248 45.996 23.944 49.86a9 9 0 0 0 10.272-2.26 60 60 0 0 0 5.148-14.612c1.788-7.696-.824-5.024 9.068-8.596 5.84-2.104 12.532-4.292 13.728-10.38a6.44 6.44 0 0 0-3.54-7.224 215.2 215.2 0 0 0-46.86-18.804m45.212 21.676c3.932 2.368.972 7.04-3.84 8.764-20.24 7.232-15.3 1.936-18.264 13.464a67 67 0 0 1-4.464 12.56 3.88 3.88 0 0 1-4.54.72c-4.784-3.296-18.548-39.692-21.112-46.856-1.712-4.736-.888-7.144 5.888-5.604A212 212 0 0 1 90.3 55.104v-.032zM1.472 26.232a51.2 51.2 0 0 0 18.82 7.188 1.668 1.668 0 0 0 1.056-3.164 69 69 0 0 0-10.876-5.06c-12.168-4.48-10.68.46-9 1.036m26.336-24.46c-1.492 26.772 5.36 23.388 5.36 20.632.3-7.05-.45-14.106-2.224-20.936a1.577 1.577 0 1 0-3.136.304m26.184-.252a55.6 55.6 0 0 0-7.168 20.68 1.663 1.663 0 0 0 1.7 2.192 1.68 1.68 0 0 0 1.468-1.136 64.8 64.8 0 0 0 6.976-20.628 1.589 1.589 0 1 0-2.972-1.104m4.736 31.156A58.8 58.8 0 0 0 77.82 22.34a1.66 1.66 0 1 0-1.44-2.992 68 68 0 0 0-18.912 10.464 1.576 1.576 0 0 0 .129 2.816c.358.16.763.175 1.135.052M2.792 58.296a98.4 98.4 0 0 0 20.216-11.36c2.248-1.056 2.692-9.92-21.792 8.624a1.58 1.58 0 0 0 1.576 2.736M24 81.44a80.8 80.8 0 0 0 7.876-21.52c1.4-3.388-5.208-7.108-10.844 20.456a1.575 1.575 0 0 0 1.56 2.107A1.575 1.575 0 0 0 24 81.44" clip-rule="evenodd"/></g><defs><clipPath id="a"><path fill="#fff" d="M0 0h96v96H0z"/></clipPath></defs></svg>
